X:1
T:James Gibb editions
T:Fair in a morn - Morley
T:#
%%score [ 1 2 ]
L:1/8
Q:1/4=108
M:4/4
K:F
V:1 treble nm="Tenor" snm="T"
V:2 bass nm="Lute"
V:1
"^Nicholas Breton\n(1545-1626)""^Fair in a morn""^Thomas Morley\n(1557-1602)" (cc)BA G2 A2 | %1
w: Fair * in a morn, O|
w: And * on a hill, O|
w: And as he be- held, this|
w: For * joy where- of he|
 B2 G2 F2 f2 | e3 e d2 c2 | (d4 c4) |[M:4/4] c2 BA G2 A2 | B2 G2 F2 f2 | e3 e d2 c2 | (d4 c4) | %8
w: fair- est morn: was|ev- er morn so|fair? *|When as the sun, but|not the same that|shm- eth in the|air, *|
w: fair- est hill; was|ne- ver hill so|bless- ed,|there stood a man, was|ne- ver man for|no man so dis-|tress- ed.|
w: man be- held, he|saw so fair a|face, *|The which would daunt the|fair- est here and|stain the brav- est|grace. *|
w: made such mirth that|all the world did|ring, *|And Pan with all his|nymphs came fortth to|hear the shep- herds|sing. *|
 c2 de f2 c2 | d2 (cB) A2 f2 | e2 d2 c3 d | (=B2 B2) z4 | z4 z2 d2 | e2 f2 g2 c2 | d2 f2 e2 c2 | %15
w: But of the earth, no|earth- ly * sun, and|yet no earth- ly|crea- ture,|There|shone a face, was|ne- ver face that|
w: This man had hap, O|hap- py * man; no|man so happ'd as|he, *|For|none had hap to|see the hap that|
w: Pi- ty, he cried, and|Pi- ty * came, and|pi- tied for his|pain, *|That|dy- ing would not|let him die, but|
w: But such a song sung|ne- ver * was, nor|ne'er will be a-|gam, *|Of|Phil- li- da the|shep- herds' queen, and|
 B2 A2 G2 G2 | F4 z4 | z8 | z8 | z4 z2 d2 | e2 f2 g2 c2 | d2 f2 e2 c2 | B2 A2 G2 G2 | F4 z4 |] %24
w: car- ried such a|fea\-ture,|||there|shone a face, was|ne- ver face that|car- ried such a|fea\-ture.|
w: he had happ'd to|see,|||for|none had hap to|see the hap that|he had happ'd to|see.|
w: gave him life a-|gain,|||that|dy- ing would not|let him die, but|gave him life a-|gain.|
w: Co- ry- don the|swain,|||of|Phil- li- da the|shep- herds' queen, and|Co- ry- don the|swain.|
V:2
 F,4 C,2 F,2 | B,,2 C,2 F,,4 | C,D,E,F, G,2 A,2 | G,4 C,4 |[M:4/4] F,4 C,2 F,2 | B,,2 C,2 F,,4 | %6
 C,D,E,F, G,2 A,2 | G,4 C,4 | F,4 F,2 F,2 | B,,2 C,2 F,,2 F,2 | G,2 B,2 A,4 | G,6 F,2 | E,4 D,4 | %13
 C,2 D,2 E,2 F,2 | D,4 C,2 F,2 | B,,2 F,,2 C,4 | F,,8 | z2 C,2 D,2 E,2 | F,2 D,2 C,2 F,2 | %19
 E,4 D,4 | C,2 D,2 E,2 F,2 | D,4 C,2 F,2 | B,,2 F,,2 C,4 | F,,8 |] %24

